docs/1.1.0/_static/images/pytorch-colab.svg

<svg enable-background="new 0 0 181.13 105" viewBox="0 0 181.13 105" xmlns="http://www.w3.org/2000/svg"><path d="m26.84 52.6c0-1.78.18-3.51.52-5.18s.85-3.29 1.5-4.83 1.45-3 2.37-4.37 1.98-2.64 3.14-3.81l-17.45-17.45c-9.12 9.12-14.76 21.72-14.76 35.64s5.64 26.52 14.76 35.64l17.45-17.45c-4.65-4.66-7.53-11.09-7.53-18.19z" fill="#ffa800"/><path d="m52.56 26.87c6.84 0 13.03 2.68 17.64 7.03l14.23-20.35c-8.69-7.1-19.78-11.36-31.87-11.36-13.92 0-26.52 5.64-35.64 14.76l17.45 17.45c4.66-4.65 11.09-7.53 18.19-7.53z" fill="#ffdd3d"/><path d="m70.2 71.29c-4.61 4.35-10.8 7.03-17.64 7.03-7.1 0-13.53-2.88-18.19-7.53l-17.45 17.45c9.12 9.12 21.72 14.76 35.64 14.76 12.04 0 23.09-4.23 31.76-11.27z" fill="#ffdd3d"/><path d="m164.44 16.96-17.45 17.45c4.66 4.66 7.53 11.09 7.53 18.19 0 14.21-11.52 25.72-25.72 25.72-7.1 0-13.53-2.88-18.19-7.53l-17.45 17.45c9.12 9.12 21.72 14.76 35.64 14.76 27.84 0 50.4-22.57 50.4-50.4 0-13.92-5.64-26.52-14.76-35.64z" fill="#ffa800"/><path d="m103.07 52.6c0-14.21 11.52-25.72 25.72-25.72 7.1 0 13.53 2.88 18.19 7.53l17.45-17.45c-9.12-9.12-21.72-14.76-35.64-14.76-27.84 0-50.4 22.57-50.4 50.4 0 13.92 5.64 26.52 14.76 35.64l17.45-17.45c-4.65-4.66-7.53-11.09-7.53-18.19z" fill="#ffdd3d"/></svg>

<?xml version="1.0" encoding="utf-8"?>
<!-- Generator: Adobe Illustrator 23.0.1, SVG Export Plug-In . SVG Version: 6.00 Build 0)  -->
<svg version="1.1" id="Layer_1" xmlns="http://www.w3.org/2000/svg" xmlns:xlink="http://www.w3.org/1999/xlink" x="0px" y="0px"
	 viewBox="0 0 181.13 105" style="enable-background:new 0 0 181.13 105;" xml:space="preserve">
<style type="text/css">
	.st0{fill:#FFA800;}
	.st1{fill:#FFDD3D;}
</style>
<g>
	<path class="st0" d="M26.84,52.6c0-1.78,0.18-3.51,0.52-5.18c0.34-1.67,0.85-3.29,1.5-4.83c0.65-1.54,1.45-3,2.37-4.37
		c0.92-1.37,1.98-2.64,3.14-3.81L16.92,16.96C7.8,26.08,2.16,38.68,2.16,52.6S7.8,79.12,16.92,88.24l17.45-17.45
		C29.72,66.13,26.84,59.7,26.84,52.6z"/>
	<path class="st1" d="M52.56,26.87c6.84,0,13.03,2.68,17.64,7.03l14.23-20.35C75.74,6.45,64.65,2.19,52.56,2.19
		c-13.92,0-26.52,5.64-35.64,14.76l17.45,17.45C39.03,29.75,45.46,26.87,52.56,26.87z"/>
	<path class="st1" d="M70.2,71.29c-4.61,4.35-10.8,7.03-17.64,7.03c-7.1,0-13.53-2.88-18.19-7.53L16.92,88.24
		C26.04,97.36,38.64,103,52.56,103c12.04,0,23.09-4.23,31.76-11.27L70.2,71.29z"/>
	<path class="st0" d="M164.44,16.96l-17.45,17.45c4.66,4.66,7.53,11.09,7.53,18.19c0,14.21-11.52,25.72-25.72,25.72
		c-7.1,0-13.53-2.88-18.19-7.53L93.16,88.24c9.12,9.12,21.72,14.76,35.64,14.76c27.84,0,50.4-22.57,50.4-50.4
		C179.2,38.68,173.56,26.08,164.44,16.96z"/>
	<path class="st1" d="M103.07,52.6c0-14.21,11.52-25.72,25.72-25.72c7.1,0,13.53,2.88,18.19,7.53l17.45-17.45
		c-9.12-9.12-21.72-14.76-35.64-14.76c-27.84,0-50.4,22.57-50.4,50.4c0,13.92,5.64,26.52,14.76,35.64l17.45-17.45
		C105.95,66.13,103.07,59.7,103.07,52.6z"/>
</g>
</svg>
